!!!COM: Palestrina, Giovanni Perluigi da
!!!OPR: Alma Redemptoris mater
!!!OTL: Gloria
**kern	**kern	**kern	**kern	**kern	**kern
*Ibass	*Ibass	*Itenor	*Icalto	*Icalto	*Icant
!Bassus 2	!Bassus 1	!Tenor	!Altus 2	!Altus 1	!Cantus
*clefF4	*clefF4	*clefGv2	*clefG2	*clefG2	*clefG2
*k[b-]	*k[b-]	*k[b-]	*k[b-]	*k[b-]	*k[b-]
*F:ion	*F:ion	*F:ion	*F:ion	*F:ion	*F:ion
*M4/2	*M4/2	*M4/2	*M4/2	*M4/2	*M4/2
=1	=1	=1	=1	=1	=1
1r	0r	1.F	1r	0r	0r
[1F	.	.	[1c	.	.
.	.	2F	.	.	.
=2	=2	=2	=2	=2	=2
2F]	0r	1A	2c]	0r	1.f
2F	.	.	2c	.	.
2D	.	1B-	1d	.	.
2BB-	.	.	.	.	2f
=3	=3	=3	=3	=3	=3
2.F	0r	1c	1f	0r	1a
4E	.	.	.	.	.
1D	.	2d	1f	.	1b-
.	.	[2f	.	.	.
=4	=4	=4	=4	=4	=4
1C	0r	2f]	1g	0r	1cc
.	.	2e	.	.	.
4BB-	.	1d	1b-	.	2dd
4C	.	.	.	.	.
4D	.	.	.	.	[2ff
4E	.	.	.	.	.
=5	=5	=5	=5	=5	=5
2F	0r	1c	2a	0r	2ff]
2C	.	.	2.g	.	2ee
2G	.	2B-	.	.	2dd
.	.	.	8f	.	.
.	.	.	8e	.	.
2A	.	2c	2f	.	2cc
=6	=6	=6	=6	=6	=6
2G	0r	2d	2g	0r	2b-
2E	.	4c	2g	.	2.cc
.	.	4B-	.	.	.
1F	.	4A	2f	.	.
.	.	4B-	.	.	4b-
.	.	2c	2f	.	[2a
=7	=7	=7	=7	=7	=7
0G	0r	0B-	0d	0r	2a]
.	.	.	.	.	4g
.	.	.	.	.	4f
.	.	.	.	.	1g
=8	=8	=8	=8	=8	=8
0F	1r	0A	1f	1r	1a
.	1F	.	1f	1a	1cc
=9	=9	=9	=9	=9	=9
0r	1B-	0r	1f	1b-	1dd
.	1G	.	1g	1b-	1dd
=10	=10	=10	=10	=10	=10
2r	1c	2r	2g	2cc	1ee
1C	.	1c	1e	1g	.
.	1r	.	.	.	1r
2C	.	2c	2e	2g	.
=11	=11	=11	=11	=11	=11
1F	0r	1c	1f	1a	0r
2D	.	2d	2f	2a	.
2G	.	2d	2g	2b-	.
=12	=12	=12	=12	=12	=12
1F	2r	1f	2a	2cc	2r
.	1F	.	1a	1f	1cc
1r	.	1r	.	.	.
.	2F	.	2a	2f	2cc
=13	=13	=13	=13	=13	=13
0r	1B-	0r	1b-	1f	1dd
.	1G	.	1b-	1g	1dd
=14	=14	=14	=14	=14	=14
2r	0c	2r	2cc	2.g	1ee
2C	.	2e	2g	.	.
.	.	.	.	4f	.
2C	.	2e	2g	4e	2r
.	.	.	.	4d	.
2C	.	2e	2g	4c	2cc
.	.	.	.	4B-	.
=15	=15	=15	=15	=15	=15
1F	2r	1.f	1a	2A	2cc
.	2F	.	.	2a	2cc
1D	2F	.	1f	1a	1ff
.	2F	[2d	.	.	.
=16	=16	=16	=16	=16	=16
2.G	1B-	2d]	0g	2g	1dd
.	.	2.g	.	2d	.
4F	.	.	.	.	.
4E	1G	.	.	1e	2.gg
4D	.	4f	.	.	.
[2C	.	4e	.	.	.
.	.	4d	.	.	4ff
=17	=17	=17	=17	=17	=17
4C]	1c	1e	1r	0g	4ee
4D	.	.	.	.	4dd
4E	.	.	.	.	1cc
4F	.	.	.	.	.
1G	1r	1d	2r	.	.
.	.	.	[2g	.	2b
=18	=18	=18	=18	=18	=18
1C	2r	0c	2g]	2r	1cc
.	1c	.	2e	1g	.
1r	.	.	1e	.	2r
.	2A	.	.	2a	[2cc
=19	=19	=19	=19	=19	=19
0r	2A	0r	2.a	2e	2cc]
.	2.d	.	.	1f	2a
.	.	.	4g	.	.
.	.	.	4f	.	2a
.	4c	.	4e	.	.
.	4B-	.	4d	2f	[2dd
.	4A	.	4c	.	.
=20	=20	=20	=20	=20	=20
0r	2G	0r	2B-	1g	2dd]
.	2G	.	2d	.	2b-
.	2A	.	2c	2.f	2cc
.	[2B-	.	4B-	.	[2dd
.	.	.	4c	4e	.
=21	=21	=21	=21	=21	=21
0r	4B-]	1r	4d	2d	4dd]
.	4A	.	4e	.	4cc
.	2F	.	1f	2c	2a
.	2G	2r	.	2B-	2b-
.	2C	[2c	2e	2c	2g
=22	=22	=22	=22	=22	=22
2r	1F	2c]	1f	2A	2a
1F	.	2c	.	1a	1cc
.	1r	2A	2r	.	.
2F	.	2A	[2f	2a	2cc
=23	=23	=23	=23	=23	=23
2D	0r	2.d	2f]	1a	1dd
2D	.	.	2f	.	.
.	.	4c	.	.	.
2.G	.	4B-	2d	1g	2dd
.	.	4A	.	.	.
.	.	[2G	2d	.	[2gg
4F	.	.	.	.	.
=24	=24	=24	=24	=24	=24
4E	0r	2G]	2.g	2r	4gg]
4D	.	.	.	.	4ff
1C	.	2G	.	1g	4ee
.	.	.	4f	.	4dd
.	.	2.g	2e	.	2cc
2BB	.	.	2d	2g	2dd
.	.	4f	.	.	.
=25	=25	=25	=25	=25	=25
1C	0r	4e	2c	1g	2ee
.	.	4d	.	.	.
.	.	2e	2.g	.	1cc
1G	.	1d	.	1g	.
.	.	.	4f	.	.
.	.	.	2d	.	2b
=26	=26	=26	=26	=26	=26
0C	2r	1c	2e	2g	1cc
.	2.c	.	2.g	2.e	.
.	.	1r	.	.	2r
.	4c	.	4g	4e	.
.	2c	.	2g	2e	[2cc
=27	=27	=27	=27	=27	=27
0r	2.F	0r	2a	1f	4cc]
.	.	.	.	.	4cc
.	.	.	2a	.	2cc
.	4G	.	.	.	.
.	2A	.	2cc	2c	2f
.	2B-	.	4b-	[2d	2f
.	.	.	4a	.	.
=28	=28	=28	=28	=28	=28
0r	2B-	0r	2g	2d]	2g
.	2A	.	1f	2c	2a
.	1G	.	.	1B-	1b-
.	.	.	2e	.	.
=29	=29	=29	=29	=29	=29
2r	1F	2r	2f	2c	2.a
1F	.	1c	1a	1f	.
.	.	.	.	.	4b-
.	1r	.	.	.	1cc
2F	.	2c	2a	2f	.
=30	=30	=30	=30	=30	=30
1BB-	1r	1d	1b-	1f	0r
2.C	2r	4c	2.g	2e	.
.	.	4d	.	.	.
.	[2c	4e	.	2c	.
4D	.	4f	4f	.	.
=31	=31	=31	=31	=31	=31
2E	2c]	2g	4e	2.cc	0r
.	.	.	4d	.	.
4F	2c	2f	2c	.	.
4G	.	.	.	4b-	.
4A	1F	2f	1r	2a	.
4B-	.	.	.	.	.
2c	.	2e	.	2a	.
=32	=32	=32	=32	=32	=32
2c	2G	1d	0r	2.g	1r
2B	2G	.	.	.	.
.	.	.	.	4f	.
1c	2.A	2.c	.	2e	2r
.	.	.	.	2a	2cc
.	4G	4B-	.	.	.
=33	=33	=33	=33	=33	=33
0r	2F	4A	1r	2a	2dd
.	.	4F	.	.	.
.	2E	2.c	.	2g	2ee
.	1D	.	2r	1f	1ff
.	.	4B-	.	.	.
.	.	4B-	2f	.	.
.	.	4A	.	.	.
=34	=34	=34	=34	=34	=34
0r	1C	2c	2g	0r	1ee
.	.	2c	2a	.	.
.	1r	2d	1b-	.	2dd
.	.	2e	.	.	2g
=35	=35	=35	=35	=35	=35
0r	0r	1f	1a	1r	2cc
.	.	.	.	.	2.dd
.	.	1e	1g	2r	.
.	.	.	.	.	4cc
.	.	.	.	2c	2cc
=36	=36	=36	=36	=36	=36
0r	0r	2d	2f	2d	4b-
.	.	.	.	.	4a
.	.	2c	1a	2e	1cc
.	.	2d	.	1f	.
.	.	2d	4g	.	2b
.	.	.	4f	.	.
=37	=37	=37	=37	=37	=37
2r	0r	1c	4g	2e	1cc
.	.	.	4c	.	.
2F	.	.	2cc	2a	.
2G	.	2r	2b-	2g	1r
2A	.	2c	[2a	[2f	.
=38	=38	=38	=38	=38	=38
1B-	0r	2d	2a]	2f]	1r
.	.	2d	2g	2d	.
2A	.	2e	2.a	2c	1cc
[2F	.	2f	.	[2cc	.
.	.	.	4g	.	.
=39	=39	=39	=39	=39	=39
2F]	1F	2c	1f	2cc]	2a
2D	.	2d	.	1b-	2b-
2E	2G	2c	2r	.	1cc
2F	2A	2c	2f	2a	.
=40	=40	=40	=40	=40	=40
4BB-	1B-	1B-	4d	1f	1dd
4C	.	.	4e	.	.
4D	.	.	4f	.	.
4E	.	.	4g	.	.
1F	2A	1r	4a	2f	[1cc
.	.	.	4g	.	.
.	[2c	.	2f	2a	.
=41	=41	=41	=41	=41	=41
0r	2c]	0r	2e	2g	2cc]
.	2A	.	2a	1f	2cc
.	2B-	.	1g	.	2dd
.	2c	.	.	2e	2cc
=42	=42	=42	=42	=42	=42
2r	1F	2r	1.a	[0f	1cc
1F	.	1c	.	.	.
.	1r	.	.	.	1r
2BB-	.	2d	2b-	.	.
=43	=43	=43	=43	=43	=43
2.F	2r	1c	1.a	0f]	2r
.	1F	.	.	.	1cc
4G	.	.	.	.	.
2A	.	[1F	.	.	.
2B-	2BB-	.	2f	.	2dd
=44	=44	=44	=44	=44	=44
1A	2.F	2F]	1f	2r	2.cc
.	.	2f	.	1c	.
.	4G	.	.	.	4b-
1r	2A	2e	1r	.	2a
.	2B-	[2d	.	2d	2g
=45	=45	=45	=45	=45	=45
1r	1A	2d]	1r	1e	0a
.	.	2c#	.	.	.
2r	1D	2d	2r	2f#	.
[2D	.	[2d	[2a	[2f#	.
=46	=46	=46	=46	=46	=46
4D]	0r	4d]	4a]	4f#]	0r
4D	.	4d	4a	4f#	.
2D	.	2d	2a	2f#	.
1G	.	1d	1b-	1g	.
=47	=47	=47	=47	=47	=47
1F	2r	1f	1cc	2a	2r
.	1F	.	.	1a	1cc
1r	.	1r	1f	.	.
.	2F	.	.	2a	2cc
=48	=48	=48	=48	=48	=48
1r	1B-	1r	2f	1d	1dd
.	.	.	2g	.	.
2r	1A	2r	1a	2e	[1cc
[2F	.	[2f	.	[2a	.
=49	=49	=49	=49	=49	=49
2F]	0r	2f]	0r	2a]	0cc]
2F	.	2f	.	2a	.
2.A	.	2.e	.	2.a	.
4B-	.	4d	.	4g	.
=50	=50	=50	=50	=50	=50
2c	0r	2e	2r	2a	0r
1d	.	1f	2f	2.b-	.
.	.	.	2d	.	.
.	.	.	.	4a	.
2c	.	2e	2e	[2a	.
=51	=51	=51	=51	=51	=51
1B-	1r	1d	4f	2a]	1r
.	.	.	4e	.	.
.	.	.	2d	2g	.
1A	[1F	[1f	2c	1a	2r
.	.	.	[2cc	.	[2a
=52	=52	=52	=52	=52	=52
1r	2F]	1f]	2cc]	1.f	2a]
.	2F	.	2cc	.	2a
2r	2.F	2r	2.cc	.	2.a
[2F	.	[2c	.	2f	.
.	4G	.	4b-	.	4b-
=53	=53	=53	=53	=53	=53
2F]	2A	2c]	2a	0f	2cc
2BB-	1B-	2B-	4d	.	1dd
.	.	.	4e	.	.
1F	.	1c	4f	.	.
.	.	.	4g	.	.
.	2A	.	2a	.	2cc
=54	=54	=54	=54	=54	=54
0BB-	0B-	0d	2f	0f	0b-
.	.	.	2d	.	.
.	.	.	2f	.	.
.	.	.	2g	.	.
=55	=55	=55	=55	=55	=55
0F	0A	0c	0a	0f	0cc
=56	=56	=56	=56	=56	=56
0r	0r	1f	0r	0r	0r
.	.	1e	.	.	.
=57	=57	=57	=57	=57	=57
0r	0r	2.f	0r	1cc	1r
.	.	4e	.	.	.
.	.	4d	.	1b	1ff
.	.	4c	.	.	.
.	.	2d	.	.	.
=58	=58	=58	=58	=58	=58
0r	0r	1c	0r	2.cc	1ee
.	.	.	.	4b-	.
.	.	[1d	.	4a	2.ff
.	.	.	.	4g	.
.	.	.	.	2a	.
.	.	.	.	.	4ee
=59	=59	=59	=59	=59	=59
0r	0r	2d]	0r	2f	2dd
.	.	2e	.	2g	2cc
.	.	2.f	.	2a	2dd
.	.	.	.	[2a	[2cc
.	.	4e	.	.	.
=60	=60	=60	=60	=60	=60
0r	0r	1d	1f	2a]	2cc]
.	.	.	.	4g	2b
.	.	.	.	4f	.
.	.	1c	1e	1g	[1cc
=61	=61	=61	=61	=61	=61
1c	0r	1F	2.f	1a	1cc]
.	.	.	4e	.	.
1B	.	1G	4d	1g	2r
.	.	.	4c	.	.
.	.	.	2d	.	[2g
=62	=62	=62	=62	=62	=62
2.c	1r	0r	1e	2r	2g]
.	.	.	.	1g	1cc
4B-	.	.	.	.	.
4A	1c	.	2e	.	.
4G	.	.	.	.	.
2A	.	.	2c	2f#	2a
=63	=63	=63	=63	=63	=63
1G	1B	2r	1d	2.g	1dd
.	.	2g	.	.	.
.	.	.	.	4f	.
2C	2.c	4g	1g	4e	[1cc
.	.	4f	.	4d	.
2C	.	4e	.	2e	.
.	4B-	4d	.	.	.
=64	=64	=64	=64	=64	=64
2.F	2A	4c	1a	2f	1cc]
.	.	4B-	.	.	.
.	2F	2A	.	1a	.
4G	.	.	.	.	.
4A	2F	1c	2f	.	1cc
4F	.	.	.	.	.
[2c	2E	.	2g	2g	.
=65	=65	=65	=65	=65	=65
2c]	1D	1F	2a	1f	1dd
2B	.	.	2d	.	.
1c	1C	1G	2r	2e	2ee
.	.	.	[2g	[2e	[2cc
=66	=66	=66	=66	=66	=66
0C	2r	0r	2g]	2e]	2cc]
.	1c	.	2g	2e	2cc
.	.	.	2.g	1e	2.cc
.	2c	.	.	.	.
.	.	.	4f	.	4b-
=67	=67	=67	=67	=67	=67
0r	2.c	0r	4e	2c	2a
.	.	.	4d	.	.
.	.	.	2e	1cc	2g
.	4B-	.	.	.	.
.	2A	.	2f	.	2a
.	2G	.	2g	2b-	2b-
=68	=68	=68	=68	=68	=68
0r	2A	0r	4f	4a	2cc
.	.	.	4e	4g	.
.	1B-	.	4d	4f	1dd
.	.	.	4c	4e	.
.	.	.	2B-	4d	.
.	.	.	.	4e	.
.	2A	.	2c	[2f	2cc
=69	=69	=69	=69	=69	=69
0r	1G	1r	2d	2f]	1b-
.	.	.	2B-	2e	.
.	[1F	2r	2c	2f	1a
.	.	[2c	[2f	[2a	.
=70	=70	=70	=70	=70	=70
2r	1F]	2c]	2f]	2a]	2r
1F	.	2c	2f	2a	1cc
.	1r	2.c	2.f	2.a	.
2F	.	.	.	.	2cc
.	.	4B-	4e	4g	.
=71	=71	=71	=71	=71	=71
2F	0r	2A	4c	2f	1cc
.	.	.	4d	.	.
2E	.	2G	2e	2g	.
2D	.	2A	2f	2f	1dd
2BB-	.	[2B-	[2g	2d	.
=72	=72	=72	=72	=72	=72
0C	0r	2B-]	2g]	2e	0cc
.	.	2A	1f	2f	.
.	.	1G	.	1g	.
.	.	.	2e	.	.
=73	=73	=73	=73	=73	=73
1F	2r	1F	2f	2a	2cc
.	2F	.	2a	2cc	2ff
1r	1c	1r	1g	1cc	1ee
=74	=74	=74	=74	=74	=74
2r	1F	1f	2a	2cc	1ff
2F	.	.	2cc	2a	.
1c	1r	1e	1cc	1g	1r
=75	=75	=75	=75	=75	=75
1F	2r	2.f	2cc	2a	0r
.	2F	.	2a	2cc	.
.	.	4e	.	.	.
1r	2G	2d	2g	2b-	.
.	2A	2c	2e	2cc	.
=76	=76	=76	=76	=76	=76
0r	1F	2d	2.f	1a	0r
.	.	1c	.	.	.
.	.	.	4e	.	.
.	1G	.	1d	[1g	.
.	.	2B	.	.	.
=77	=77	=77	=77	=77	=77
2r	0r	1c	2e	2g]	2r
1F	.	.	1a	1f	1cc
.	.	1r	.	.	.
2F	.	.	2a	2f	2cc
=78	=78	=78	=78	=78	=78
1F	1r	2r	1a	2.f	1cc
.	.	1f	.	.	.
.	.	.	.	4e	.
1r	[1B-	.	[1b-	4d	[1dd
.	.	.	.	4c	.
.	.	2f	.	2B-	.
=79	=79	=79	=79	=79	=79
2.BB-	2B-]	2.f	2b-]	2.d	2dd]
.	2B-	.	2b-	.	2dd
4BB-	.	4e	.	4e	.
2BB-	1B-	4d	1b-	2f	1dd
.	.	4c	.	.	.
2BB-	.	2B-	.	2f	.
=80	=80	=80	=80	=80	=80
0F	1r	2.c	2.a	1f	2.cc
.	.	4c	4a	.	4cc
.	2.F	2A	2a	2.f	2cc
.	.	2A	2a	.	2cc
.	4F	.	.	4f	.
=81	=81	=81	=81	=81	=81
1D	2F	1.d	1a	2f	1ff
.	2F	.	.	2f	.
1BB-	1B-	.	4d	2f	1dd
.	.	.	4e	.	.
.	.	2B-	4f	4d	.
.	.	.	4g	4e	.
=82	=82	=82	=82	=82	=82
0F	2A	1c	1a	4f	2cc
.	.	.	.	4g	.
.	4F	.	.	1a	2.cc
.	4G	.	.	.	.
.	4A	1c	2.f	.	.
.	4B-	.	.	.	4b-
.	4c	.	.	[2f	[2a
.	4A	.	4e	.	.
=83	=83	=83	=83	=83	=83
1r	1B-	0r	1d	2f]	2a]
.	.	.	.	4e	2g
.	.	.	.	4d	.
2r	1A	.	2c	1e	2a
2A	.	.	2a	.	2cc
=84	=84	=84	=84	=84	=84
1B-	0r	2r	2f	1d	1dd
.	.	2d	2g	.	.
2A	.	1f	1a	1r	2cc
2F	.	.	.	.	2a
=85	=85	=85	=85	=85	=85
1.A	0r	2e	2.a	0r	1.cc
.	.	2c	.	.	.
.	.	.	4a	.	.
.	.	2e	2a	.	.
2A	.	2e	[2cc	.	2cc
=86	=86	=86	=86	=86	=86
1G	0r	1g	4cc]	0r	1dd
.	.	.	8b-	.	.
.	.	.	8a	.	.
.	.	.	2b-	.	.
1F	.	1a	[1cc	.	1ff
=87	=87	=87	=87	=87	=87
0c	1r	2.g	1cc]	2r	1ee
.	.	.	.	1e	.
.	.	8f	.	.	.
.	.	8g	.	.	.
.	1A	1a	2r	.	1r
.	.	.	2c	[2f	.
=88	=88	=88	=88	=88	=88
0r	1B-	2r	1d	2f]	0r
.	.	2d	.	2g	.
.	2A	1f	2c	2a	.
.	2F	.	2A	[2a	.
=89	=89	=89	=89	=89	=89
0r	1A	2e	4c	4a]	0r
.	.	.	4d	4b-	.
.	.	2c	4e	1cc	.
.	.	.	4f	.	.
.	[1G	2e	[1g	.	.
.	.	4d	.	4b-	.
.	.	4c	.	4a	.
=90	=90	=90	=90	=90	=90
1r	1G]	2.d	1g]	1b-	1r
.	.	4e	.	.	.
1F	1r	4f	2c	1a	1cc
.	.	4g	.	.	.
.	.	[2a	[2f	.	.
=91	=91	=91	=91	=91	=91
2D	0r	4a]	2f]	1r	2dd
.	.	8g	.	.	.
.	.	8f	.	.	.
2C	.	2e	2g	.	2ee
1F	.	1f	2a	2r	1cc
.	.	.	2f	[2f	.
=92	=92	=92	=92	=92	=92
0r	0r	0r	2a	2f]	2dd
.	.	.	2b-	2g	2ee
.	.	.	4cc	2a	[1ff
.	.	.	4b-	.	.
.	.	.	4a	2f	.
.	.	.	4g	.	.
=93	=93	=93	=93	=93	=93
0r	1r	0r	2f	2a	2ff]
.	.	.	2g	2b-	4ee
.	.	.	.	.	4dd
.	2r	.	1c	4cc	4ee
.	.	.	.	4b-	4dd
.	[2F	.	.	4a	4cc
.	.	.	.	4g	4b-
=94	=94	=94	=94	=94	=94
1r	2F]	1r	2r	4f	2a
.	.	.	.	4e	.
.	2G	.	2g	2d	2b-
2r	2A	2r	2e	1c	1cc
[2F	2F	[2f	[2a	.	.
=95	=95	=95	=95	=95	=95
2F]	2A	2f]	2a]	0r	0r
2G	2B-	2d	4g	.	.
.	.	.	4f	.	.
2A	4c	2c	2e	.	.
.	4B-	.	.	.	.
2F	4A	2c	[2a	.	.
.	4G	.	.	.	.
=96	=96	=96	=96	=96	=96
2A	2F	2f	2a]	0r	0r
2B-	2G	2d	2g	.	.
4c	2C	1e	2g	.	.
4B-	.	.	.	.	.
4A	[2c	.	[2a	.	.
4G	.	.	.	.	.
=97	=97	=97	=97	=97	=97
2F	2c]	1d	2a]	1r	2r
2G	2B	.	4g	.	2dd
.	.	.	4f	.	.
1C	1c	1c	1e	1g	1ee
=98	=98	=98	=98	=98	=98
0r	0r	0r	2d	2a	2ff
.	.	.	2d	2b-	2.dd
.	.	.	2e	2g	.
.	.	.	.	.	4cc
.	.	.	2f	2a	[2cc
=99	=99	=99	=99	=99	=99
0r	1G	0r	2d	1g	2cc]
.	.	.	2d	.	2b-
.	2A	.	2c	4f	2cc
.	.	.	.	4e	.
.	2B-	.	[2f	4d	[2dd
.	.	.	.	4c	.
=100	=100	=100	=100	=100	=100
1r	2G	2r	2f]	1B-	2dd]
.	2G	2B-	2e	.	4cc
.	.	.	.	.	4b-
2r	1F	2c	2f	2r	1a
2D	.	[2d	2a	2f	.
=101	=101	=101	=101	=101	=101
2E	0r	2d]	2g	2g	0r
2F	.	1c	2c	2a	.
2D	.	.	2d	2f	.
2D	.	2B	2d	2f	.
=102	=102	=102	=102	=102	=102
1C	2r	0c	2g	2e	2r
.	2c	.	2g	2c	2ee
1r	1F	.	1a	1cc	1ff
=103	=103	=103	=103	=103	=103
2r	1c	2r	1g	2cc	2.ee
2c	.	2e	.	2g	.
.	.	.	.	.	4dd
1F	1r	1f	1r	1a	[1cc
=104	=104	=104	=104	=104	=104
1c	2r	1e	2r	2g	2cc]
.	2A	.	2a	2cc	2cc
1r	2B-	1r	2g	2b-	2dd
.	2c	.	2g	2g	2ee
=105	=105	=105	=105	=105	=105
2r	1F	1c	4f	1a	2ff
.	.	.	4g	.	.
2A	.	.	4a	.	1ff
.	.	.	4f	.	.
2B-	1r	2d	1g	2r	.
2c	.	2e	.	4cc	2ee
.	.	.	.	4b-	.
=106	=106	=106	=106	=106	=106
1F	1r	1f	2r	4a	2dd
.	.	.	.	4g	.
.	.	.	2f	2a	2cc
1B-	1BB-	[1f	4d	2b-	1dd
.	.	.	4e	.	.
.	.	.	4f	2B-	.
.	.	.	4g	.	.
=107	=107	=107	=107	=107	=107
1A	1F	1f]	4a	2.c	1cc
.	.	.	4g	.	.
.	.	.	2f	.	.
.	.	.	.	4d	.
[1G	4C	1e	1g	4e	2r
.	4D	.	.	4f	.
.	4E	.	.	4g	[2gg
.	4F	.	.	4a	.
=108	=108	=108	=108	=108	=108
2G]	0G	2d	1g	2b	2gg]
2C	.	2c	.	1cc	2ee
1G	.	1d	2r	.	1dd
.	.	.	2g	2b	.
=109	=109	=109	=109	=109	=109
2r	0C	1c	2g	2cc	1ee
2c	.	.	2g	4c	.
.	.	.	.	4d	.
2c	.	1r	2c	4e	1cc
.	.	.	.	4f	.
2c	.	.	2e	2g	.
=110	=110	=110	=110	=110	=110
2F	0r	1r	4f	2a	2cc
.	.	.	4e	.	.
2A	.	.	4d	2f	2cc
.	.	.	4c	.	.
1G	.	2r	2.d	2g	2b-
.	.	2G	.	2g	2b-
.	.	.	4e	.	.
=111	=111	=111	=111	=111	=111
0r	1F	2.A	[0f	1c	2.a
.	.	4B-	.	.	4g
.	2F	2c	.	1r	4a
.	.	.	.	.	4b-
.	2F	2c	.	.	4cc
.	.	.	.	.	4a
=112	=112	=112	=112	=112	=112
0r	2BB-	2.d	1f]	1r	1b-
.	2D	.	.	.	.
.	.	4d	.	.	.
.	1C	1e	1g	2r	1cc
.	.	.	.	2g	.
=113	=113	=113	=113	=113	=113
1r	0r	1r	2a	2f	2dd
.	.	.	2b-	2g	2dd
2r	.	2r	1cc	1c	2.ee
2c	.	2g	.	.	.
.	.	.	.	.	4ff
=114	=114	=114	=114	=114	=114
2B-	0r	2g	0r	2d	1gg
2c	.	2g	.	2e	.
1F	.	1a	.	2.f	2r
.	.	.	.	.	2cc
.	.	.	.	4e	.
=115	=115	=115	=115	=115	=115
2G	0r	2g	0r	2d	2b-
2A	.	2.f	.	2c	2cc
[1B-	.	.	.	4d	1f
.	.	4e	.	4c	.
.	.	4d	.	4B-	.
.	.	4c	.	4c	.
=116	=116	=116	=116	=116	=116
2B-]	0r	2B-	0r	4d	2g
.	.	.	.	4e	.
2A	.	2c	.	1f	2a
1G	.	2d	.	.	[1b-
.	.	4d	.	2e	.
.	.	4c	.	.	.
=117	=117	=117	=117	=117	=117
1F	2r	4d	0r	1f	2b-]
.	.	4e	.	.	.
.	2c	1f	.	.	2a
1r	2B-	.	.	2r	1g
.	2c	2e	.	2g	.
=118	=118	=118	=118	=118	=118
0r	1F	2.f	2r	2a	1f
.	.	.	2cc	2a	.
.	.	4e	.	.	.
.	2G	2d	2b-	2g	1r
.	2A	2c	2cc	[2f	.
=119	=119	=119	=119	=119	=119
0r	1.B-	1d	1f	4f]	1r
.	.	.	.	4e	.
.	.	.	.	1d	.
.	.	1r	2g	.	2r
.	2A	.	2a	2c	2cc
=120	=120	=120	=120	=120	=120
0r	1G	1r	1b-	2B-	2dd
.	.	.	.	2B-	2ee
.	2.F	1c	2a	2r	2ff
.	.	.	[2f	2c	[2ff
.	4E	.	.	.	.
=121	=121	=121	=121	=121	=121
1r	2D	2B-	4f]	2d	2ff]
.	.	.	4d	.	.
.	2C	2c	2g	2e	2ee
2r	1D	1F	1f	2f	1dd
2F	.	.	.	2a	.
=122	=122	=122	=122	=122	=122
2E	0r	2G	2r	2g	1cc
2F	.	2A	2c	1f	.
1BB-	.	[1B-	2d	.	2r
.	.	.	[2f	2d	[2dd
=123	=123	=123	=123	=123	=123
2D	0r	1B-]	2f]	2f	2dd]
2E	.	.	4e	2.g	2g
.	.	.	4d	.	.
1F	.	1A	1c	.	[1cc
.	.	.	.	4f	.
.	.	.	.	[2f	.
=124	=124	=124	=124	=124	=124
0C	1r	0G	1c	2f]	1cc]
.	.	.	.	4e	.
.	.	.	.	4d	.
.	2.c	.	2r	1e	1g
.	.	.	[2cc	.	.
.	4B-	.	.	.	.
=125	=125	=125	=125	=125	=125
2.F	4A	0F	4cc]	[0f	2.a
.	4G	.	4b-	.	.
.	2.F	.	2.a	.	.
4G	.	.	.	.	4b-
1A	.	.	.	.	2cc
.	4E	.	4g	.	.
.	4D	.	4f	.	[2ff
.	4C	.	4e	.	.
=126	=126	=126	=126	=126	=126
0B-	0BB-	2.f	2d	1f_	4ff]
.	.	.	.	.	4ee
.	.	.	4B-	.	4dd
.	.	4e	4c	.	4cc
.	.	1d	4d	1f_	1b-
.	.	.	4e	.	.
.	.	.	4f	.	.
.	.	.	4g	.	.
=127	=127	=127	=127	=127	=127
0A	0F	0c	0a	0f]	0cc
==	==	==	==	==	==
*-	*-	*-	*-	*-	*-
!!!CDT: 1525/^1526/-1594/2/2
!!!OCY: Italia
!!!AGN: Mass (Paraphrase)
!!!AST: renaissance, vocal
!!!ASW: Antiphon
!!!PWK: Masses, Book 11
!!!RNB: Cadence finals: C
!!!YOR: Le Opere Complete, v. 28, p. 148
!!!YOO: Rome, Italy: Fratelli Scalera
!!!END: 1992//
!!!EED: John Miller
!!!YEC: Copyright 2000, John Miller
!!!YEN: United States of America
!!!YEM: Rights to all derivative electronic formats reserved.
!!!YEM: Refer to licensing agreement for further details.
!!!YEM: This file must be accompanied by the licensing agreement.
!!!YEM: A copy of the licensing agreement may be found at http://www.music-cog.ohio-state.edu/HumdrumDatabases/Palestrina/license.txt
!!!EMD: converted to Humdrum by Bret Aarden
